Catalina-light/actions/16/im-user-away.svg

<svg xmlns="http://www.w3.org/2000/svg" width="16" height="16" viewBox="0 0 16 16">
 <defs>
  <style id="current-color-scheme" type="text/css">
   .ColorScheme-Text { color:#5c616c; } .ColorScheme-Highlight { color:#5294e2; }
  </style>
 </defs>
 <path style="fill:currentColor" class="ColorScheme-Text" d="M 8 0 C 5.7909 -5.5e-06 4 1.7909 4 4 C 4.0000166 6.2091 5.7909 8 8 8 C 10.2091 8.000006 12 6.2091 12 4 C 12 1.7909 10.209 0 8 0 z M 8 8.9863281 C 3.972 8.9911281 0.5035 12.004 0 16 L 9.7128906 16 C 8.6785906 15.173 8 13.918 8 12.5 C 8 11.097 8.6653406 9.8407719 9.6816406 9.0136719 C 8.9431406 8.9991719 8.1873 8.9877281 8 8.9863281 z M 12.5 9 A 3.5 3.5 0 0 0 9 12.5 A 3.5 3.5 0 0 0 12.5 16 A 3.5 3.5 0 0 0 16 12.5 L 14.5 13.75 L 13 15 L 13 13 L 10 13 L 10 12 L 13 12 L 13 10 L 14.5 11.25 L 16 12.5 A 3.5 3.5 0 0 0 12.5 9 z"/>
</svg>

<svg width="16" height="16" viewBox="0 0 16 16" xmlns="http://www.w3.org/2000/svg">
<defs>
<style id="current-color-scheme" type="text/css">.ColorScheme-Text { color:#5c616c; } .ColorScheme-Highlight { color:#5294e2; }</style>
</defs>
<path class="ColorScheme-Text" d="m8 0c-2.2091-5.5e-6 -4 1.7909-4 4 1.66e-5 2.2091 1.7909 4 4 4 2.2091 6e-6 4-1.7909 4-4s-1.791-4-4-4zm0 8.9863c-4.028 0.0048-7.4965 3.0177-8 7.0137h9.7129c-1.0343-0.827-1.7129-2.082-1.7129-3.5 0-1.403 0.66534-2.6592 1.6816-3.4863-0.7385-0.0145-1.4943-0.025944-1.6816-0.027344zm4.5 0.013672a3.5 3.5 0 0 0-3.5 3.5 3.5 3.5 0 0 0 3.5 3.5 3.5 3.5 0 0 0 3.5-3.5l-3 2.5v-2h-3v-1h3v-2l3 2.5a3.5 3.5 0 0 0-3.5-3.5z" fill="#363636"/>
</svg>
